X:1
T:[ID 7-78]
T:[ID 7-78]
T:Bezeichnung standardisiert: Englischer Engl.
T:Urheber unbekannt Datum in der hier transkribierten schriftlichen Quelle: 1776 - 1791
C:Urheber unbekannt
C:Datum in der hier transkribierten schriftlichen Quelle: 1776 - 1791
L:1/8
M:2/4
K:A
V:1 treble 
V:1
 (ae)(ec) | (ec)(cA) | .d.B.G.E | A/G/A/B/ A2 | (ae)(ec) | eccA | .d.B.G.E | A2 A2 :: c/B/c/d/ cc | %9
 ceac | B/A/B/c/ BB | BdgB | A/G/A/B/ AA | Aced | (3cBA (3EFG | A2 A2 :| %16

